X:1
T:Rorate
M:4/4
L:1/4
Q:108
C:Scottish Traditional
K:F
c | AG3/4F1/4F G/A/ | c A/c/ d e/f/ |
c3/2A/ B/A/ G/F/ | DGG c3/4B1/4 |
A G3/4F1/4 F G/A/ | c A/c/ d e/f/|
c3/2A/ B/A/ G/F/| DFF A/B/ |
c3/2d/ c/A/ G/A/ | c3/4A1/4 c/d/ c3/2A/ | 
G A/c/ f/e/ d/c/ | A d3/4e1/4 dz/e/ |
f3/2e/d c/A/ | G A/c/ H_e d1/2=e1/4f1/4 | c3/2A/ B/A/ G/F/ | DFF ||